X:1
T:Waikiki, 87.87 D
T:F. S. Shepard, 1902
T:Waikiki, 87.87 D
T:Public Domain
C:F. S. Shepard, 1902
Z:Public Domain
%%score ( 1 2 ) ( 3 4 )
L:1/8
M:3/4
K:Ab
V:1 treble 
V:2 treble 
V:3 bass 
V:4 bass 
V:1
 [Ec][Ec] | [Ec]3 [Fd] [Ec][DB] | [CA]2 [DF]2 [DF][EF] | [DF]3 [DE] [DG][DF] | %4
 ([DF]2 [CE]2) [Ec][Ec] | [Ec]3 [Fd] [Ec][DB] | [CA]2 [DF]2 [=B,F][B,F] | [CE]3 [CE] [DF][DE] | %8
 [CA]4 [EG][EA] | [EB]3 [Ed] [Ec][EB] | [Ec]2 [Ec]2 [Ac][Ac] | [GB]3 [EG] [=Dc][DB] | %12
 (E2 _D2) [Cc][Cc] | [Ec]3 [Fd] [Ec][DB] | [CA]2 [DF]2 [=B,F][B,F] | [CE]3 [CE] [DF][DE] | %16
 (CD C2) |] %17
V:2
 x2 | x6 | x6 | x6 | x6 | x6 | x6 | x6 | x6 | x6 | x6 | x6 | B4 x2 | x6 | x6 | x6 | A4 |] %17
V:3
 [A,,A,][A,,A,] | [A,,A,]3 [A,,A,] [A,,A,][E,G,] | [F,A,]2 [D,A,]2 [D,A,][C,A,] | %3
 [B,,G,]3 [B,,B,] [E,B,][E,G,] | [A,,A,]4 [A,,A,][A,,A,] | [A,,A,]3 [A,,A,] [A,,A,][E,G,] | %6
 [F,A,]2 [D,A,]2 [=D,A,][D,A,] | [E,A,]3 [E,A,] [E,G,][E,G,] | [A,,A,]4 [E,B,][E,C] | %9
 [E,D]3 [E,B,] [E,A,][E,G,] | A,2 [A,,A,]2 [A,E][A,E] | [B,E]3 B, [B,,A,][B,,A,] | %12
 [E,G,]4 [A,,A,][A,,A,] | [A,,A,]3 [A,,A,] [A,,A,][E,G,] | [F,A,]2 [D,A,]2 [=D,A,][D,A,] | %15
 [E,A,]3 [E,A,] [E,G,][E,G,] | (A,F, E,2) |] %17
V:4
 x2 | x6 | x6 | x6 | x6 | x6 | x6 | x6 | x6 | x6 | A,2 x4 | x3 B, x2 | x6 | x6 | x6 | x6 | A,,4 |] %17

